X: 3
T:Seven Stars
R: 32-bar single jig
M:6/8
K:D
A|"D"d2A A2F|"G"GAB "D"A3|"G"Bcd "A"efg|"D"fed "A"cBA|
"D"d2A A2F|"G"GAB "D"A3|"G"Bcd "Em"efg|"A"Adc "D"d2::
f|:"A"e2A A2f|"A"efg "D"f3|"A"efg "D"fed|"A"cec A3|
"G"BGB "D"AFA|"G"BGB "D"AFA|"G"Bcd "Em"efg|"A7"Adc "D"d2:|
